packages/foundations/assets/icons/functional/images/transportation/handcart_14_inverted.svg

<svg width="14" height="14" viewBox="0 0 14 14" fill="none" xmlns="http://www.w3.org/2000/svg">
<g clip-path="url(#clip0_2214_7308)">
<path fill-rule="evenodd" clip-rule="evenodd" d="M3.15062 9.74753C3.73051 9.74753 4.20061 10.2176 4.20061 10.7975C4.20061 11.3774 3.73051 11.8475 3.15062 11.8475C2.57072 11.8475 2.10062 11.3774 2.10062 10.7975C2.10062 10.2176 2.57072 9.74753 3.15062 9.74753ZM8.05062 9.74753C8.63051 9.74753 9.10062 10.2176 9.10062 10.7975C9.10062 11.3774 8.63051 11.8475 8.05062 11.8475C7.47072 11.8475 7.00062 11.3774 7.00062 10.7975C7.00062 10.2176 7.47072 9.74753 8.05062 9.74753ZM5.95061 10.2025C6.27922 10.2025 6.54562 10.4689 6.54562 10.7975C6.54562 11.1009 6.31707 11.3925 5.95061 11.3925C5.78991 11.3925 5.55658 11.3925 5.25062 11.3925C4.92201 11.3925 4.65562 11.1261 4.65562 10.7975C4.65562 10.4942 4.89346 10.2025 5.25062 10.2025H5.95061ZM9.82621 2.15253C10.7832 2.15253 11.599 2.83065 11.7829 3.75818L12.4945 9.00823C12.4945 9.27931 12.3852 9.4698 12.1667 9.57971C11.9482 9.68962 11.4815 9.92295 10.7667 10.2797C10.4728 10.4267 10.1154 10.3075 9.96843 10.0136C9.83278 9.74231 9.91152 9.3727 10.2345 9.21534L11.2538 8.70523L10.624 4.0398C10.5739 3.66899 10.2345 3.34702 9.91152 3.34702C9.47437 3.34702 9.21644 3.07614 9.21644 2.74753C9.21644 2.4442 9.45482 2.15253 9.82621 2.15253ZM9.10062 5.54753C9.42922 5.54753 9.69561 5.81392 9.69561 6.14253C9.69561 6.44586 9.49629 6.73753 9.10062 6.73753V7.99753C9.08972 8.72772 8.83472 9.03986 8.08261 9.04753H3.1678C2.6471 9.04227 2.10062 8.84254 2.10062 7.99753V6.73753C1.73437 6.73753 1.50562 6.47114 1.50562 6.14253C1.50562 5.8392 1.7438 5.54753 2.10062 5.54753C6.54821 5.54753 8.88154 5.54753 9.10062 5.54753Z" fill="#1A1C1F"/>
</g>
<defs>
<clipPath id="clip0_2214_7308">
<rect width="14" height="14" fill="white"/>
</clipPath>
</defs>
</svg>

<svg xmlns="http://www.w3.org/2000/svg" width="14" height="14" fill="none"><g clip-path="url(#a)"><path fill="#1A1C1F" fill-rule="evenodd" d="M3.15 9.748a1.05 1.05 0 1 1 0 2.1 1.05 1.05 0 0 1 0-2.1m4.9 0a1.05 1.05 0 1 1 0 2.1 1.05 1.05 0 0 1 0-2.1m-2.1.455c.33 0 .596.266.596.595a.587.587 0 0 1-.595.595h-.7a.595.595 0 0 1 0-1.19zm3.876-8.05c.957 0 1.773.678 1.957 1.605l.712 5.25q0 .407-.328.572l-1.4.7a.595.595 0 0 1-.799-.266.59.59 0 0 1 .267-.799l1.019-.51-.63-4.665c-.05-.371-.39-.693-.712-.693-.438 0-.696-.27-.696-.6 0-.303.239-.594.61-.594m-.725 3.395c.328 0 .595.266.595.595 0 .303-.2.595-.595.595v1.26c-.011.73-.266 1.042-1.018 1.05H3.168c-.52-.006-1.067-.205-1.067-1.05v-1.26a.57.57 0 0 1-.595-.595c0-.304.238-.595.595-.595z" clip-rule="evenodd"/></g><defs><clipPath id="a"><path fill="#fff" d="M0 0h14v14H0z"/></clipPath></defs></svg>
